Origami/48x48/apps/tormessenger.svg

<svg width="48" height="48" version="1.1" viewBox="0 0 48 48.000001" xmlns="http://www.w3.org/2000/svg">
 <path d="m43.982 23.348c-0.0076 0.20859-0.01832 0.41617-0.0332 0.62305-0.543 10.094-9.31 18.017-19.949 18.029-2.2828-8e-3 -4.5472-0.38714-6.6953-1.1211l-5.305 3.121v1l5.3047-3.1211c2.148 0.734 4.412 1.113 6.695 1.121 10.639-0.012 19.406-7.935 19.949-18.029 0.01591-0.22113 0.02754-0.44286 0.03516-0.66602 6e-3 -0.102 0.012-0.203 0.016-0.305-1e-3 -0.041-3e-3 -0.082-4e-3 -0.123 1e-3 -0.06 4e-3 -0.118 4e-3 -0.178 0-0.11854-0.01523-0.23354-0.01758-0.35156zm-39.968 0.052c-0.0017 0.101-0.0137 0.199-0.0137 0.299 1.01e-4 0.06216 0.0051 0.12346 0.00586 0.18555-0.0021 0.038-0.0041 0.077-0.0059 0.115 0.00988 5.887 3.089 11.41 8 15v-1c-4.7993-3.509-7.8408-8.864-7.9863-14.6z" opacity=".2"/>
 <path d="m23.994 4c-0.56998 0.00422-1.1395 0.031591-1.707 0.082031-0.4114 0.03259-0.81493 0.085152-1.2188 0.14062-0.21405 0.027311-0.42762 0.057914-0.64062 0.091797-0.57543 0.096959-1.1403 0.21947-1.6973 0.36133-0.03648 0.00902-0.07294 0.018131-0.10938 0.027344-8.442 2.1985-14.621 9.4219-14.621 17.996 1.01e-4 0.06216 0.0051 0.12346 0.00586 0.18555-0.0021 0.038-0.0041 0.077-0.0059 0.115 0.00988 5.887 3.089 11.41 8 15v6l5.3047-3.1211c2.148 0.734 4.412 1.113 6.695 1.121 10.639-0.012 19.406-7.935 19.949-18.029 0.01591-0.22113 0.02754-0.44286 0.03516-0.66602 6e-3 -0.102 0.012-0.203 0.016-0.305-1e-3 -0.041-2e-3 -0.082-4e-3 -0.123 1e-3 -0.06 4e-3 -0.118 4e-3 -0.178 0-9.684-7.877-17.666-18.004-18.603-0.553-0.0489-1.108-0.0757-1.664-0.0804-0.112-0.0017-0.221-0.0156-0.334-0.0156z" style="fill:#bad632"/>
 <path d="m24 10a14 14 0 0 0 -14 14 14 14 0 0 0 14 14 14 14 0 0 0 1 -0.037109v3.990234c1.374356-0.066405 2.710691-0.262361 4-0.580078v-4.300781a14 14 0 0 0 9 -13.072266 14 14 0 0 0 -14 -14z" style="opacity:.1"/>
 <path d="m23.994 4a20 19 0 0 0 -1.707 0.082c-0.411 0.0326-0.815 0.0852-1.219 0.1407a20 19 0 0 0 -0.64 0.0918c-0.576 0.0969-1.141 0.2194-1.698 0.3613a20 19 0 0 0 -0.109 0.0273c-8.442 2.1985-14.621 9.4219-14.621 17.996 1e-4 0.062 0.0051 0.124 0.0059 0.186a20 19 0 0 0 -0.0059 0.115 20 19 0 0 0 0.0176 0.318c0.1811-8.405 6.2874-15.449 14.603-17.615a20 19 0 0 1 0.109 -0.0272c0.557-0.1419 1.122-0.2644 1.698-0.3613a20 19 0 0 1 0.64 -0.0918c0.404-0.0555 0.808-0.1081 1.219-0.1407a20 19 0 0 1 1.707 -0.082h4e-3c0.113 0 0.222 0.0139 0.334 0.0156a20 19 0 0 1 1.664 0.0801c10.003 0.9259 17.797 8.7283 17.986 18.252 1e-3 -0.015 2e-3 -0.029 2e-3 -0.043a20 19 0 0 0 0.016 -0.305 20 19 0 0 0 -4e-3 -0.123c1e-3 -0.06 4e-3 -0.118 4e-3 -0.178 0-9.684-7.877-17.666-18.004-18.603a20 19 0 0 0 -1.664 -0.0804c-0.112-0.0017-0.221-0.0156-0.334-0.0156h-4e-3z" fill="#fff" opacity=".2"/>
 <path d="m24 9a14 14 0 0 0 -14 14 14 14 0 0 0 14 14 14 14 0 0 0 1 -0.037109v4.990234c1.374356-0.066405 2.710691-0.262361 4-0.580078v-5.300781a14 14 0 0 0 9 -13.072266 14 14 0 0 0 -14 -14z" style="fill:#578418"/>
 <path d="m24 17a7 7 0 0 0 -7 7v11.103516a14 14 0 0 0 4 1.554687v-6.34375a7 7 0 0 0 3 0.685547 7 7 0 0 0 7 -7 7 7 0 0 0 -7 -7z" style="opacity:.1"/>
 <path d="m24 16a7 7 0 0 0 -7 7v12.103516a14 14 0 0 0 4 1.554687v-7.34375a7 7 0 0 0 3 0.685547 7 7 0 0 0 7 -7 7 7 0 0 0 -7 -7z" style="fill:#252920"/>
</svg>

<?xml version="1.0" encoding="UTF-8" standalone="no"?>
<svg
   xmlns:dc="http://purl.org/dc/elements/1.1/"
   xmlns:cc="http://creativecommons.org/ns#"
   xmlns:rdf="http://www.w3.org/1999/02/22-rdf-syntax-ns#"
   xmlns:svg="http://www.w3.org/2000/svg"
   xmlns="http://www.w3.org/2000/svg"
   viewBox="0 0 48 48.000001"
   version="1.1"
   width="48"
   height="48"
   id="svg2">
  <defs
     id="defs11" />
  <metadata
     id="metadata51">
    <rdf:RDF>
      <cc:Work
         rdf:about="">
        <dc:format>image/svg+xml</dc:format>
        <dc:type
           rdf:resource="http://purl.org/dc/dcmitype/StillImage" />
        <dc:title></dc:title>
      </cc:Work>
    </rdf:RDF>
  </metadata>
  <path
     d="m43.982 23.348c-0.0076 0.20859-0.01832 0.41617-0.0332 0.62305-0.543 10.094-9.31 18.017-19.949 18.029-2.2828-0.008-4.5472-0.38714-6.6953-1.1211l-5.305 3.121v1l5.3047-3.1211c2.148 0.734 4.412 1.113 6.695 1.121 10.639-0.012 19.406-7.935 19.949-18.029 0.01591-0.22113 0.02754-0.44286 0.03516-0.66602 0.006-0.102 0.012-0.203 0.016-0.305-0.001-0.041-0.003-0.082-0.004-0.123 0.001-0.06 0.004-0.118 0.004-0.178 0-0.11854-0.01523-0.23354-0.01758-0.35156zm-39.968 0.052c-0.0017 0.101-0.0137 0.199-0.0137 0.299 0.000101 0.06216 0.0051 0.12346 0.00586 0.18555-0.0021 0.038-0.0041 0.077-0.0059 0.115 0.00988 5.887 3.089 11.41 8 15v-1c-4.7993-3.509-7.8408-8.864-7.9863-14.6z"
     opacity=".2"
     id="path4139" />
  <path
     style="fill:#bad632;fill-opacity:1"
     d="m23.994 4c-0.56998 0.00422-1.1395 0.031591-1.707 0.082031-0.4114 0.03259-0.81493 0.085152-1.2188 0.14062-0.21405 0.027311-0.42762 0.057914-0.64062 0.091797-0.57543 0.096959-1.1403 0.21947-1.6973 0.36133-0.03648 0.00902-0.07294 0.018131-0.10938 0.027344-8.442 2.1985-14.621 9.4219-14.621 17.996 0.000101 0.06216 0.0051 0.12346 0.00586 0.18555-0.0021 0.038-0.0041 0.077-0.0059 0.115 0.00988 5.887 3.089 11.41 8 15v6l5.3047-3.1211c2.148 0.734 4.412 1.113 6.695 1.121 10.639-0.012 19.406-7.935 19.949-18.029 0.01591-0.22113 0.02754-0.44286 0.03516-0.66602 0.006-0.102 0.012-0.203 0.016-0.305-0.001-0.041-0.002-0.082-0.004-0.123 0.001-0.06 0.004-0.118 0.004-0.178 0-9.684-7.877-17.666-18.004-18.603-0.553-0.0489-1.108-0.0757-1.664-0.0804-0.112-0.0017-0.221-0.0156-0.334-0.0156z"
     fill="#2090ea"
     id="path37" />
  <path
     id="path4186"
     d="M 24 10 A 14 14 0 0 0 10 24 A 14 14 0 0 0 24 38 A 14 14 0 0 0 25 37.962891 L 25 41.953125 C 26.374356 41.88672 27.710691 41.690764 29 41.373047 L 29 37.072266 A 14 14 0 0 0 38 24 A 14 14 0 0 0 24 10 z "
     style="opacity:0.1;fill:#000000;fill-opacity:1;stroke:none;stroke-width:4;stroke-linecap:round;stroke-linejoin:round;stroke-miterlimit:4;stroke-dasharray:none;stroke-opacity:1" />
  <path
     fill="#fff"
     d="m23.994 4a20 19 0 0 0 -1.707 0.082c-0.411 0.0326-0.815 0.0852-1.219 0.1407a20 19 0 0 0 -0.64 0.0918c-0.576 0.0969-1.141 0.2194-1.698 0.3613a20 19 0 0 0 -0.109 0.0273c-8.442 2.1985-14.621 9.4219-14.621 17.996 0.0001 0.062 0.0051 0.124 0.0059 0.186a20 19 0 0 0 -0.0059 0.115 20 19 0 0 0 0.0176 0.318c0.1811-8.405 6.2874-15.449 14.603-17.615a20 19 0 0 1 0.109 -0.0272c0.557-0.1419 1.122-0.2644 1.698-0.3613a20 19 0 0 1 0.64 -0.0918c0.404-0.0555 0.808-0.1081 1.219-0.1407a20 19 0 0 1 1.707 -0.082h0.004c0.113 0 0.222 0.0139 0.334 0.0156a20 19 0 0 1 1.664 0.0801c10.003 0.9259 17.797 8.7283 17.986 18.252 0.001-0.015 0.002-0.029 0.002-0.043a20 19 0 0 0 0.016 -0.305 20 19 0 0 0 -0.004 -0.123c0.001-0.06 0.004-0.118 0.004-0.178 0-9.684-7.877-17.666-18.004-18.603a20 19 0 0 0 -1.664 -0.0804c-0.112-0.0017-0.221-0.0156-0.334-0.0156h-0.004z"
     opacity=".2"
     id="path4199" />
  <path
     id="path4174"
     d="M 24 9 A 14 14 0 0 0 10 23 A 14 14 0 0 0 24 37 A 14 14 0 0 0 25 36.962891 L 25 41.953125 C 26.374356 41.88672 27.710691 41.690764 29 41.373047 L 29 36.072266 A 14 14 0 0 0 38 23 A 14 14 0 0 0 24 9 z "
     style="opacity:1;fill:#578418;fill-opacity:1;stroke:none;stroke-width:4;stroke-linecap:round;stroke-linejoin:round;stroke-miterlimit:4;stroke-dasharray:none;stroke-opacity:1" />
  <path
     id="path4188"
     d="M 24 17 A 7 7 0 0 0 17 24 L 17 35.103516 A 14 14 0 0 0 21 36.658203 L 21 30.314453 A 7 7 0 0 0 24 31 A 7 7 0 0 0 31 24 A 7 7 0 0 0 24 17 z "
     style="opacity:0.1;fill:#000000;fill-opacity:1;stroke:none;stroke-width:4;stroke-linecap:round;stroke-linejoin:round;stroke-miterlimit:4;stroke-dasharray:none;stroke-opacity:1" />
  <path
     id="path4176"
     d="M 24 16 A 7 7 0 0 0 17 23 L 17 35.103516 A 14 14 0 0 0 21 36.658203 L 21 29.314453 A 7 7 0 0 0 24 30 A 7 7 0 0 0 31 23 A 7 7 0 0 0 24 16 z "
     style="opacity:1;fill:#252920;fill-opacity:1;stroke:none;stroke-width:4;stroke-linecap:round;stroke-linejoin:round;stroke-miterlimit:4;stroke-dasharray:none;stroke-opacity:1" />
</svg>
